!!!OTL: Liangshanbo
!!!ARE: Asia, China,ÿHebei, Fengnan
!! IV, 75
!!!SCT: C1642
!!!YEM: Copyright 1995, estate of Helmut Schaffrath.
**kern
*ICvox
*Ivox
*M2/4
*k[b-]
*F:
{8dd
8cc
[4cc
=1
4cc]
8cc
8cc
=2
4ff
8aa
8gg
=3
8ff
8dd
4cc
=4
4ff
8a
8cc
=5
8dd
8cc
8a
8g
=6
4f
4f}
=7
{8g
8a
8cc
8ff
=8
8dd
8cc
4cc
=9
4.f
8a
=10
8g
8f
8d
16f
16d
=11
[2c
=12
2c]}
=13
{8cc
8a
4cc
=14
4ff
4aa
=15
8dd
8cc
[4cc
=16
4cc]
4a}
=17
{8cc
8a
4cc
=18
4ff
4aa
=19
8dd
8cc
[4cc
=20
4cc]
4a}
=21
{8dd
8cc
[4cc
=22
4cc]
8cc
8cc
=23
4ff
8aa
8gg
=24
8ff
8dd
8dd
8cc
=25
4ff
8a
8cc
=26
8dd
8cc
8a
8g
=27
4f
8f
8r}
=28
{4.f
8g
=29
4a
8cc
8a
=30
4g
4g}
=31
{4.f
8g
=32
8a
8g
8cc
8a
=33
4g
4r}
=34
{8g
8a
8cc
8ff
=35
8dd
8cc
4cc
=36
4.f
8a
=37
8g
8f
8d
16f
16d
=38
[2c
=39
2c]}
==
!!!AGN: Xiaodiao
!!!AMT: simple duple
!!!AIN: vox
!!!EED: Helmut Schaffrath
!!!EEV: 1.0
*-
!!!ONB: Tied note syntax fixed by Craig Sapp, 2004/05/03/
